icon-themes/breeze_svg/svx/res/dstv_hig.svg

<svg viewBox="0 0 16 16" xmlns="http://www.w3.org/2000/svg"><path d="m2 2v1h1 1v4h5v-2-1-1h1v-1h-1-.5-4.5-1zm3 1h3v3h-3zm7 0-2 3h4zm-2 4 2 3 2-3zm-8 2v1h1v1 1 1 1h6v-2-1-1h1v-1h-1-6zm2 1h4v3h-4z" fill="#4d4d4d"/></svg>

<svg xmlns="http://www.w3.org/2000/svg" viewBox="0 0 16 16">
 <path 
     style="fill:#4d4d4d" 
     d="M 2 2 L 2 3 L 3 3 L 4 3 L 4 7 L 9 7 L 9 5 L 9 4 L 9 3 L 10 3 L 10 2 L 9 2 L 8.5 2 L 4 2 L 3 2 L 2 2 z M 5 3 L 8 3 L 8 6 L 5 6 L 5 3 z M 12 3 L 10 6 L 14 6 L 12 3 z M 10 7 L 12 10 L 14 7 L 10 7 z M 2 9 L 2 10 L 3 10 L 3 11 L 3 12 L 3 13 L 3 14 L 9 14 L 9 12 L 9 11 L 9 10 L 10 10 L 10 9 L 9 9 L 3 9 L 2 9 z M 4 10 L 8 10 L 8 13 L 4 13 L 4 10 z "
     />
</svg>
